public/assets/images/icons/black/visibility-invisible/classbook.svg

<svg width="16" height="16" xmlns="http://www.w3.org/2000/svg" viewBox="0 0 16 16" shape-rendering="geometricPrecision"><defs><mask id="a"><rect fill="#fff" width="100%" height="100%"/><path d="M12.997.858a4.809 4.809 0 0 0-4.253 2.563 4.81 4.81 0 0 0 8.506 0A4.812 4.812 0 0 0 12.997.858z"/></mask></defs><path d="M12.997 1.611a3.394 3.394 0 0 0-3.003 1.81 3.397 3.397 0 0 0 6.006 0 3.398 3.398 0 0 0-3.003-1.81zm-.001 3.396a1.587 1.587 0 1 1 0-3.174 1.587 1.587 0 0 1 0 3.174z" fill="#cb1800"/><path mask="url(#a)" d="M14.55 13.121L14.539 0H4.094C2.718.003 1.596.619 1.573 1.987c-.003.025-.003.529 0 .535v.003c0 .04.009.076.011.117h-.009v10.826A2.532 2.532 0 0 0 4.104 16h8.386l-.038-1.689-.009-11.345h-8.35c-.496 0-1.68-.048-1.68-.979v-.094C2.464 1.008 3.597.841 4.093.841h9.593V13.12h.864zm-2.899-2.232v1.746H6.375v-1.746c0-.738.601-1.342 1.339-1.342h2.594c.738 0 1.343.603 1.343 1.342zM9.013 6.101a1.393 1.393 0 1 1 .004 2.786 1.393 1.393 0 0 1-.004-2.786zm-3.638 0a1.392 1.392 0 1 1 0 2.786 1.393 1.393 0 1 1 0-2.786zm-2.637 4.788c0-.738.6-1.342 1.339-1.342H6.06a2.13 2.13 0 0 0-.485 1.342v1.746H2.738v-1.746z"/></svg>

<?xml version="1.0"?><!DOCTYPE svg PUBLIC "-//W3C//DTD SVG 1.1//EN" "http://www.w3.org/Graphics/SVG/1.1/DTD/svg11.dtd"><svg width="16px" height="16px" xmlns="http://www.w3.org/2000/svg" viewBox="0 0 16 16" shape-rendering="geometricPrecision" fill="#000"><defs><mask id="visibility-invisible-path"><rect fill="#fff" width="100%" height="100%"/><path d="M12.997,0.858c-1.845,0-3.446,1.039-4.253,2.563c0.808,1.523,2.408,2.562,4.253,2.562 c1.844,0,3.444-1.039,4.253-2.562C16.441,1.897,14.841,0.858,12.997,0.858z" fill="#000"/></mask></defs><g id="visibility-invisible" display="inline" fill="#cb1800"><g><g><path d="M12.997,1.611c-1.303,0-2.433,0.733-3.003,1.81c0.57,1.075,1.7,1.809,3.003,1.809c1.302,0,2.432-0.733,3.003-1.809 C15.429,2.345,14.299,1.611,12.997,1.611z M12.996,5.007c-0.876,0-1.587-0.71-1.587-1.586c0-0.877,0.711-1.588,1.587-1.588 c0.877,0,1.588,0.711,1.588,1.588C14.584,4.297,13.873,5.007,12.996,5.007z"/></g></g></g><path mask="url(#visibility-invisible-path)" d="M14.55,13.121L14.539,0H4.094C2.718,0.003,1.596,0.619,1.573,1.987 c-0.003,0.025-0.003,0.529,0,0.535v0.003c0,0.04,0.009,0.076,0.011,0.117H1.575v10.826C1.575,14.865,2.708,16,4.104,16h8.386 l-0.038-1.689L12.443,2.966h-8.35c-0.496,0-1.68-0.048-1.68-0.979V1.893c0.051-0.885,1.184-1.052,1.68-1.052h9.593v12.279H14.55z M11.651,10.889v1.746H6.375v-1.746c0-0.738,0.601-1.342,1.339-1.342h2.594C11.046,9.547,11.651,10.15,11.651,10.889z M9.013,6.101 c0.771,0,1.395,0.623,1.395,1.393c0,0.77-0.623,1.393-1.395,1.393c-0.77,0-1.393-0.623-1.393-1.393 C7.62,6.724,8.243,6.101,9.013,6.101z M5.375,6.101c0.771,0,1.394,0.623,1.394,1.393c0,0.77-0.623,1.393-1.394,1.393 c-0.769,0-1.393-0.623-1.393-1.393C3.982,6.724,4.606,6.101,5.375,6.101z M2.738,10.889c0-0.738,0.6-1.342,1.339-1.342H6.06 c-0.299,0.369-0.484,0.832-0.485,1.342v1.746H2.738V10.889z"/></svg>
